assets/images/phone.svg

<svg width="24" height="24" viewBox="0 0 24 24" fill="none" xmlns="http://www.w3.org/2000/svg">
<path d="M19.231 15.26L16.691 14.97C16.3924 14.9349 16.0896 14.968 15.8056 15.0667C15.5215 15.1654 15.2635 15.3273 15.051 15.54L13.211 17.38C10.3722 15.9362 8.0648 13.6288 6.62102 10.79L8.47102 8.94001C8.90102 8.51001 9.11102 7.91001 9.04102 7.30001L8.75102 4.78001C8.69432 4.29219 8.46021 3.84225 8.09325 3.51586C7.7263 3.18947 7.25213 3.00943 6.76102 3.01001H5.03102C3.90102 3.01001 2.96102 3.95001 3.03102 5.08001C3.56102 13.62 10.391 20.44 18.921 20.97C20.051 21.04 20.991 20.1 20.991 18.97V17.24C21.001 16.23 20.241 15.38 19.231 15.26Z" fill="#1A1B1F"/>
</svg>

<svg width="24" height="24" fill="none" xmlns="http://www.w3.org/2000/svg"><path d="M19.231 15.26l-2.54-.29a1.99 1.99 0 00-1.64.57l-1.84 1.84a15.045 15.045 0 01-6.59-6.59l1.85-1.85c.43-.43.64-1.03.57-1.64l-.29-2.52a2.001 2.001 0 00-1.99-1.77h-1.73c-1.13 0-2.07.94-2 2.07.53 8.54 7.36 15.36 15.89 15.89 1.13.07 2.07-.87 2.07-2v-1.73c.01-1.01-.75-1.86-1.76-1.98z" fill="#1A1B1F"/></svg>
